src/assets/img/icons/icon-share--linkedin.svg

<svg fill="none" height="20" viewBox="0 0 20 20" width="20" xmlns="http://www.w3.org/2000/svg"><path clip-rule="evenodd" d="m20 20h-4v-6.999c0-1.92-.847-2.991-2.366-2.991-1.653 0-2.634 1.116-2.634 2.991v6.999h-4v-12.99999h4v1.462s1.255-2.202 4.083-2.202c2.829 0 4.917 1.726 4.917 5.29799zm-17.558-15.079c-1.349 0-2.442-1.102-2.442-2.461 0-1.358 1.093-2.46 2.442-2.46 1.348 0 2.441 1.102 2.441 2.46.001 1.359-1.093 2.461-2.441 2.461zm-2.442 15.079h5v-13h-5z" fill="#ed3439" fill-rule="evenodd"/></svg>

<svg width="20" height="20" viewBox="0 0 20 20" fill="none" xmlns="http://www.w3.org/2000/svg">
<path fill-rule="evenodd" clip-rule="evenodd" d="M20 20H16V13.001C16 11.081 15.153 10.01 13.634 10.01C11.981 10.01 11 11.126 11 13.001V20H7V7.00001H11V8.46201C11 8.46201 12.255 6.26001 15.083 6.26001C17.912 6.26001 20 7.98601 20 11.558C20 15.129 20 20 20 20V20ZM2.442 4.921C1.093 4.921 0 3.819 0 2.46C0 1.102 1.093 0 2.442 0C3.79 0 4.883 1.102 4.883 2.46C4.884 3.819 3.79 4.921 2.442 4.921V4.921ZM0 20H5V7H0V20Z" fill="#ED3439"/>
</svg>
